X: 28846
T: My Wife's A Wanton Wee Thing
R: jig
M: 6/8
K: Dmixolydian
d2 A dfe|d3 A2 B|cdc cGE|c3 E2^c|
d2 A dfe|d3 A2 G|FDF ECE|D3 D2:|
ABA FDF|A3 c3|GcG ECE|G3 B3|
AdA FDF|A3 g3|fdf ece|d3 D2 F/G/|
ABA FDF|AdA FDF|GAG ECE|GcG ECE|
ABA FDF|AFA aeg|fga gfe|d3 D2||
d2 g faf|d3 A2 B|cdc cGE|c3 E2^c|
d2 A dfe|d3 A2 G|FDF ECE|D3 D2:|
aba fdf|a3 g2 f|gag ece|g3 efg|
aba fdf|a3 g2 f/g/|fdf ece|d3 D2 f/g/|
aba fdf|aba fdf|gag ece|gag ece|
aba fdf|aba gab|fga gfe|d3 D2||

